usr/share/icons/biglinux-icons-material-dark/16/actions/snap-extension.svg

<svg xmlns="http://www.w3.org/2000/svg" viewBox="0 0 16 16">
<defs id="defs3051">
<style id="current-color-scheme" type="text/css">
.ColorScheme-Text{color:#dedede}
</style>
</defs>
<path d="M3 2v4H2v3h1v5h1V9h1V6H4V2zm5 4v3h3V8h3V7h-3V6zM6 7v1h1V7z" class="ColorScheme-Text" style="fill:currentColor;fill-opacity:1;stroke:none"/>
</svg>

<svg xmlns="http://www.w3.org/2000/svg" viewBox="0 0 16 16">
  <defs id="defs3051">
    <style type="text/css" id="current-color-scheme">
      .ColorScheme-Text {
        color:#dedede;
      }
      </style>
  </defs>
 <path style="fill:currentColor;fill-opacity:1;stroke:none" 
     d="M 3 2 L 3 6 L 2 6 L 2 9 L 3 9 L 3 14 L 4 14 L 4 9 L 5 9 L 5 6 L 4 6 L 4 2 L 3 2 z M 8 6 L 8 7 L 8 8 L 8 9 L 11 9 L 11 8 L 14 8 L 14 7 L 11 7 L 11 6 L 8 6 z M 6 7 L 6 8 L 7 8 L 7 7 L 6 7 z "
     class="ColorScheme-Text"
     />
</svg>
